app/images/fox.svg

<svg fill="none" height="1264" viewBox="0 0 1316 1264" width="1316" xmlns="http://www.w3.org/2000/svg"><g fill="#ff5c16"><path d="m1229.81 1220.25-283.464-84.03-213.773 127.21-149.146-.06-213.897-127.15-283.3412 84.03-86.18873896-289.647 86.18873896-321.462-86.18873896-271.788 86.18873896-336.846652 442.7442 263.323652h258.134l442.743-263.323652 86.19 336.846652-86.19 271.788 86.19 321.462z"/><path d="m86.2504.506348 442.7446 263.508652-17.609 180.842z"/><path d="m369.593 930.727 194.805 147.723-194.805 57.77z"/><path d="m548.827 686.494-37.441-241.514-239.66 164.222-.124-.062v.124l.742 169.041 97.186-91.811h.062z"/><path d="m1229.81.506348-442.744 263.508652 17.547 180.842z"/><path d="m946.469 930.727-194.805 147.723 194.805 57.77z"/><path d="m1044.4 609.264h.06-.06v-.124l-.06.062-239.665-164.222-37.441 241.514h179.235l97.251 91.811z"/></g><path d="m369.53 1136.22-283.3412 84.03-86.18873896-289.523h369.52993896z" fill="#e34807"/><path d="m548.766 686.433 54.123 349.137-75.006-194.121-255.662-63.144 97.248-91.872h179.235z" fill="#e34807"/><path d="m946.469 1136.22 283.341 84.03 86.19-289.523h-369.531z" fill="#e34807"/><path d="m767.234 686.433-54.123 349.137 75.006-194.121 255.663-63.144-97.311-91.872z" fill="#e34807"/><path d="m.00006104 930.602 86.18873896-321.463h185.3522l.68 169.103 255.662 63.144 75.006 194.124-38.554 42.76-194.805-147.73h-369.52993896z" fill="#ff8d5d"/><path d="m1316 930.602-86.19-321.463h-185.35l-.68 169.103-255.663 63.144-75.006 194.124 38.553 42.76 194.805-147.73h369.531z" fill="#ff8d5d"/><path d="m787.067 263.831h-129.067-129.067l-17.546 180.841 91.502 590.658h110.222l91.564-590.658z" fill="#ff8d5d"/><path d="m86.1888.506348-86.18873896 336.846652 86.18873896 271.788h185.3522l239.784-164.284z" fill="#661800"/><path d="m495.199 756.557h-83.965l-45.72 44.608 162.43 40.098-32.745-84.768z" fill="#661800"/><path d="m1229.81.506348 86.19 336.846652-86.19 271.788h-185.35l-239.785-164.284z" fill="#661800"/><path d="m820.925 756.557h84.088l45.72 44.67-162.615 40.159 32.807-84.891z" fill="#661800"/><path d="m732.512 1148.21 19.153-69.82-38.553-42.75h-110.285l-38.553 42.75 19.153 69.82" fill="#661800"/><path d="m732.511 1148.2v115.29h-149.085v-115.29z" fill="#c0c4cd"/><path d="m369.593 1136.1 213.958 127.34v-115.29l-19.153-69.82z" fill="#e7ebf6"/><path d="m946.47 1136.1-213.958 127.34v-115.29l19.153-69.82z" fill="#e7ebf6"/></svg>

<svg width="1316" height="1264" viewBox="0 0 1316 1264" fill="none" xmlns="http://www.w3.org/2000/svg">
<path d="M1229.81 1220.25L946.346 1136.22L732.573 1263.43L583.427 1263.37L369.53 1136.22L86.1888 1220.25L6.10352e-05 930.603L86.1888 609.141L6.10352e-05 337.353L86.1888 0.506348L528.933 263.83H787.067L1229.81 0.506348L1316 337.353L1229.81 609.141L1316 930.603L1229.81 1220.25Z" fill="#FF5C16"/>
<path d="M86.2504 0.506348L528.995 264.015L511.386 444.857L86.2504 0.506348Z" fill="#FF5C16"/>
<path d="M369.593 930.727L564.398 1078.45L369.593 1136.22V930.727Z" fill="#FF5C16"/>
<path d="M548.827 686.494L511.386 444.98L271.726 609.202L271.602 609.14V609.264L272.344 778.305L369.53 686.494H369.592H548.827Z" fill="#FF5C16"/>
<path d="M1229.81 0.506348L787.066 264.015L804.613 444.857L1229.81 0.506348Z" fill="#FF5C16"/>
<path d="M946.469 930.727L751.664 1078.45L946.469 1136.22V930.727Z" fill="#FF5C16"/>
<path d="M1044.4 609.264H1044.46H1044.4V609.14L1044.34 609.202L804.675 444.98L767.234 686.494H946.469L1043.72 778.305L1044.4 609.264Z" fill="#FF5C16"/>
<path d="M369.53 1136.22L86.1888 1220.25L6.10352e-05 930.727H369.53V1136.22Z" fill="#E34807"/>
<path d="M548.766 686.433L602.889 1035.57L527.883 841.449L272.221 778.305L369.469 686.433H548.704H548.766Z" fill="#E34807"/>
<path d="M946.469 1136.22L1229.81 1220.25L1316 930.727H946.469V1136.22Z" fill="#E34807"/>
<path d="M767.234 686.433L713.111 1035.57L788.117 841.449L1043.78 778.305L946.469 686.433H767.234Z" fill="#E34807"/>
<path d="M6.10352e-05 930.602L86.1888 609.139H271.541L272.221 778.242L527.883 841.386L602.889 1035.51L564.335 1078.27L369.53 930.54H6.10352e-05V930.602Z" fill="#FF8D5D"/>
<path d="M1316 930.602L1229.81 609.139H1044.46L1043.78 778.242L788.117 841.386L713.111 1035.51L751.664 1078.27L946.469 930.54H1316V930.602Z" fill="#FF8D5D"/>
<path d="M787.067 263.831H658H528.933L511.387 444.672L602.889 1035.33H713.111L804.675 444.672L787.067 263.831Z" fill="#FF8D5D"/>
<path d="M86.1888 0.506348L6.10352e-05 337.353L86.1888 609.141H271.541L511.325 444.857L86.1888 0.506348Z" fill="#661800"/>
<path d="M495.199 756.557H411.234L365.514 801.165L527.944 841.263L495.199 756.495V756.557Z" fill="#661800"/>
<path d="M1229.81 0.506348L1316 337.353L1229.81 609.141H1044.46L804.675 444.857L1229.81 0.506348Z" fill="#661800"/>
<path d="M820.925 756.557H905.013L950.733 801.227L788.118 841.386L820.925 756.495V756.557Z" fill="#661800"/>
<path d="M732.512 1148.21L751.665 1078.39L713.112 1035.64H602.827L564.274 1078.39L583.427 1148.21" fill="#661800"/>
<path d="M732.511 1148.2V1263.49H583.426V1148.2H732.511Z" fill="#C0C4CD"/>
<path d="M369.593 1136.1L583.551 1263.44V1148.15L564.398 1078.33L369.593 1136.1Z" fill="#E7EBF6"/>
<path d="M946.47 1136.1L732.512 1263.44V1148.15L751.665 1078.33L946.47 1136.1Z" fill="#E7EBF6"/>
</svg>
